X:65
T:S Hymn. WHG.064
R:hymn
S:W.H.Giles MS,Bampton,Oxfordshire,1839p65
O:England
H:donated by Mrs W.R.Kettlewell to VWML,Apr 1927.
A:Bampton, Oxfordshire
N:The S is fairly clear; what it means I know not.
Z:PJHeadford – VMP 2009
M:C
L:1/4
Q:1/2=100
K:F
c2 d2|(cB) AB|c2 d2|(c>B A2)|\
c2 c2|d2 (ef)|e2 d2|c4||
(GA) (GA)|B2 B2|(AB) AB|c2 c2|\
(fe) (dc)|(fd) (cB)|A2 G2|HF4|]

